X: 1696
T: Antics In A Major
R: reel
M: 4/4
K: Amajor
AFEC EFAB|c2 BA FB ~B2|AFEC EFAB|1 c2 BF A3 B:|2 c2 BF ABcd||
eAce fecB|BcBA FB ~B2|eAce fecB|BcBF ABcd|
eAce fecB|BcBA FB ~B2|AFEC EFAB|c2 BF ABcd|
eAce fecB|BcBA FB ~B2|eAce fecB|BcBF ABcd|
eAce feaf|ecAc BAFB|Aafc eafc|ecBF ~A3 z||

